packages/web-icons/svgs/education_1.svg

<svg viewBox="0 0 40 49" xmlns="http://www.w3.org/2000/svg" class="ridi_icon"><path d="M39.6 47.2l-2.1-14.3c-.1-.7-.4-1.7-1.1-2l-9.2-4.5c-.4-.2-.9-.6-1.3-.9-.3-.5-.5-1-.7-1.6.7-1 1.4-2.2 1.8-3.4.4-.3.6-.6.7-1 .6-2 .8-3.9.7-6h-.1V8.6c1-.3 2-.5 3.1-.8v5.8c-.3.2-.8.6-.8.9v.9l-.2.7-.2 2.6c.5.7 3.1.9 3.5-.1l-.3-2.5-.5-.8v.1c0-.2.5-.6.5-1s-.1-.7-.4-.9V7.3l3.3-.8V4.6L19.9.9 3.3 4.5v1.9l8 2v4.9c-.1 1.9 0 4.4.7 6.2.2.4.4.6.7.8.4 1.1 1.2 2.4 1.9 3.4-.2.5-.5 1-.7 1.5-.4.4-.9.8-1.3.9l-9.2 4.4c-.6.3-1 1.4-1.1 2.1L.3 47h.1v-.3c0 1.3 8.7 2.2 19.5 2.2s19.5-.8 19.5-2.1c.2.2.1.4.2.4z"/></svg>

<?xml version="1.0" encoding="UTF-8"?>
<svg width="40px" height="49px" viewBox="0 0 40 49" version="1.1" xmlns="http://www.w3.org/2000/svg">
  <!-- Generator: Sketch 41.2 (35397) - http://www.bohemiancoding.com/sketch -->
  <title>education_1</title>
  <desc>Created with Sketch.</desc>
  <defs></defs>
  <g id="Page-1" stroke="none" stroke-width="1" fill="none" fill-rule="evenodd">
    <g id="education_1" fill="#000000">
      <g id="레이어_1">
        <path d="M39.6,47.2 L37.5,32.9 C37.4,32.2 37.1,31.2 36.4,30.9 L27.2,26.4 C26.8,26.2 26.3,25.8 25.9,25.5 C25.6,25 25.4,24.5 25.2,23.9 C25.9,22.9 26.6,21.7 27,20.5 C27.4,20.2 27.6,19.9 27.7,19.5 C28.3,17.5 28.5,15.6 28.4,13.5 L28.3,13.5 L28.3,8.6 C29.3,8.3 30.3,8.1 31.4,7.8 L31.4,13.6 C31.1,13.8 30.6,14.2 30.6,14.5 L30.6,15.4 L30.6,15.4 L30.4,16.1 L30.2,18.7 C30.7,19.4 33.3,19.6 33.7,18.6 L33.4,16.1 L32.9,15.3 L32.9,15.4 C32.9,15.2 33.4,14.8 33.4,14.4 C33.4,14 33.3,13.7 33,13.5 L33,7.3 L36.3,6.5 L36.3,4.6 L19.9,0.9 L3.3,4.5 L3.3,6.4 L11.3,8.4 L11.3,13.3 L11.3,13.3 C11.2,15.2 11.3,17.7 12,19.5 C12.2,19.9 12.4,20.1 12.7,20.3 C13.1,21.4 13.9,22.7 14.6,23.7 C14.4,24.2 14.1,24.7 13.9,25.2 C13.5,25.6 13,26 12.6,26.1 L3.4,30.5 C2.8,30.8 2.4,31.9 2.3,32.6 L0.3,47 L0.4,47 L0.4,46.7 C0.4,48 9.1,48.9 19.9,48.9 C30.7,48.9 39.4,48.1 39.4,46.8 C39.6,47 39.5,47.2 39.6,47.2 L39.6,47.2 L39.6,47.2 Z" id="Shape"></path>
      </g>
    </g>
  </g>
</svg>
